!!!!SEGMENT: pl-wnifc--2374-n--007_mikuli-karol--sieben-lieder-op-27-barcarole.krn
!!!cenid: 18xx:3896
!!!COM: Mikuli, Karol
!!!COM-rismID: pe106110
!!!CDT: 1819-1897
!!!CNT:
!!!GTL: Sieben lieder op. 27
!!!OTL: Barcarole
!!!PDT: 1880
!!!AGN:
!!!SMS-siglum: PL-Wnifc
!!!SMS-shelfmark: 2374/n
!!!SMS-shelfwork: 007 G
!!!SMS-variant:
!!!SMS-altvar:
!!!NIFC-rismSourceID: 1001155272
!!!NIFC-islandoraID: nifc:211968
!!!URL-pdf-islandora: https://repozytorium.nifc.pl/islandora/object/nifc%3A211968/datastream/PDF/view
!!!URL-scan: https://polish.musicsources.pl/pl/lokalizacje/galeria/druki-muzyczne/16819 @EN{Scan on Polish Music Sources Website} @PL{Skany w portalu Dziedzictwo Muzyki Polskiej w otwartym dostępie}
!!!ONB-nifc:
!!!AIN: 1 piano 1 soprn
!!!key: D
!!!OMD: Mässig. [eighth] = 136
!!!filter-modern: sic -sq | shed -e "s/TX(.*):t=P:/tx$1:t=P:/LG" | shed -k -e "s/:TUP:/:tup:/L" | shed -e "s/:rj/:RJ/L" | shed -k -e "s/([^a-gA-Gn#X-])[<>]/$1/g" | shed -e "s/LO:DY:(a|b|rj)/LO:dy:$1/L" | shed -e "s/LO:HP:(a|b|rj)/LO:hp:$1/L" | shed -e "s/-//B" | tie -s  | modori -m | humtr -p
**kern	**kern	**dynam	**kern	**text	**dynam
*part2	*part2	*part2	*part1	*part1	*part1
*staff3	*staff2	*	*staff1	*staff1	*
*I"Pianoforte.	*I"Pianoforte.	*	*I"Singstimme.	*	*
*I'pf	*	*	*I'V	*	*
*Ipiano	*Ipiano	*	*Isoprn	*	*
*ICklav	*ICklav	*	*ICvox	*	*
*IGacmp	*IGacmp	*	*IGsolo	*	*
*mI"Pianoforte	*mI"Pianoforte	*	*mI"Voce	*	*
*clefF4	*clefG2	*	*clefG2	*	*
*k[f#c#]	*k[f#c#]	*	*k[f#c#]	*	*
*D:	*D:	*	*D:	*	*
*M6/8	*M6/8	*	*M6/8	*	*
=1	=1	=1	=1	=1	=1
!	!	!	!	!	!
*ped	*	*	*	*	*
!	!	!LO:DY:b=2	!	!	!
(8DD/L	2.r	p	2.r	.	.
*Xped	*	*	*	*	*
!LO:TUP:b	!	!	!	!	!
24AA/L	.	.	.	.	.
24BB/	.	.	.	.	.
24AA/J	.	.	.	.	.
8A/J)	.	.	.	.	.
*ped	*	*	*	*	*
(8DD/L	.	.	.	.	.
*Xped	*	*	*	*	*
!LO:TUP:b	!	!	!	!	!
24AA/L	.	.	.	.	.
24BB/	.	.	.	.	.
24AA/J	.	.	.	.	.
8A/J)	.	.	.	.	.
=2	=2	=2	=2	=2	=2
*ped	*	*	*	*	*
(8DD/L	2.r	.	2.r	.	.
!LO:MO:null:mod=*Xped	!	!	!	!	!
*	*	*	*	*	*
!LO:TUP:b	!	!	!	!	!
24AA/L	.	.	.	.	.
24BB/	.	.	.	.	.
24AA/J	.	.	.	.	.
8A/J)	.	.	.	.	.
*ped	*	*	*	*	*
(8DD/L	.	.	.	.	.
*Xped	*	*	*	*	*
!LO:TUP:b	!	!	!	!	!
24AA/L	.	.	.	.	.
24BB/	.	.	.	.	.
24AA/J	.	.	.	.	.
8A/J)	.	.	.	.	.
=3	=3	=3	=3	=3	=3
!	!	!	!	!	!LO:DY:a
*ped	*	*	*	*	*
(8DD/L	[4.a [4.f#/	p	8a/	Du	p
*Xped	*	*	*	*	*
!LO:TUP:b	!	!	!	!	!
24AA/L	.	.	8a/	al-	.
24BB/	.	.	.	.	.
24AA/J	.	.	.	.	.
8A/J)	.	.	8a/	-ler	.
*ped	*	*	*	*	*
(8DD/L	8a]L 8f#/]	.	(8a/	Ro-	.
*Xped	*	*	*	*	*
!LO:TUP:b	!	!	!	!	!
24AA/L	8g 8e/	.	8b/)	.	.
24BB/	.	.	.	.	.
24AA/J	.	.	.	.	.
8A/J)	8eJ 8A/	.	8cc#\	-sen	.
!!LO:LB:g=original
=4	=4	=4	=4	=4	=4
*ped	*	*	*	*	*
(8DD/L	4.f# 4.d/	.	4.dd\	Ro-	.
!LO:TUP:b	!	!	!	!	!
24AA/L	.	.	.	.	.
*Xped	*	*	*	*	*
24BB/	.	.	.	.	.
24AA/J	.	.	.	.	.
8F#/J)	.	.	.	.	.
*ped	*	*	*	*	*
(8CC#/L	4.e 4.A/	.	4ee\	-se!	.
!LO:TUP:b	!	!	!	!	!
24AA/L	.	.	.	.	.
*Xped	*	*	*	*	*
24BB/	.	.	.	.	.
24AA/J	.	.	.	.	.
8E/J)	.	.	8r	.	.
=5	=5	=5	=5	=5	=5
*	*^	*	*	*	*
*ped	*	*	*	*	*	*
(8BBB/L	4f# 4d/	2ryy	.	8ff#\	thu'	.
!LO:TUP:b	!	!	!	!	!	!
24AA/L	.	.	.	8a/	doch	.
*Xped	*	*	*	*	*	*
24BB/	.	.	.	.	.	.
24AA/J	.	.	.	.	.	.
8CC# 8EJ/)	8a 8e/	.	.	8ee\	dein	.
*ped	*	*	*	*	*	*
(8DD/L	4a 4f#/	.	.	4dd\	Fen-	.
!LO:TUP:b	!	!	!	!	!	!
24AA/L	.	8ryy	.	.	.	.
*Xped	*	*	*	*	*	*
24BB/	.	.	.	.	.	.
24AA/J	.	.	.	.	.	.
8C#/J)	24g/LL	8A\	.	24ee\LL	-ster	.
.	24a/	.	.	24ff#\	.	.
.	24g/JJ	.	.	24ee\JJ	.	.
*	*v	*v	*	*	*	*
=6	=6	=6	=6	=6	=6
*ped	*	*	*	*	*
(8DD/L	4.f# 4.A/	.	4.dd\	auf!	.
!LO:TUP:b	!	!	!	!	!
24AA/L	.	.	.	.	.
*Xped	*	*	*	*	*
24BB/	.	.	.	.	.
24AA/J	.	.	.	.	.
8D/J)	.	.	.	.	.
*ped	*	*	*	*	*
(8DD/L	4r	.	4r	.	.
!LO:TUP:b	!	!	!	!	!
24AA/L	.	.	.	.	.
*Xped	*	*	*	*	*
24BB/	.	.	.	.	.
24AA/J	.	.	.	.	.
8F#/J)	8r	.	8r	.	.
=7	=7	=7	=7	=7	=7
*ped	*	*	*	*	*
(8DD/L	[4.a [4.f#/	.	8a/	lass	.
!LO:TUP:b	!	!	!	!	!
24AA/L	.	.	8a/	dei-	.
*Xped	*	*	*	*	*
24BB/	.	.	.	.	.
24AA/J	.	.	.	.	.
8A/J)	.	.	8a/	-ne	.
*ped	*	*	*	*	*
(8DD/L	8a]L 8f#/]	.	8a/L	Scheli-	.
!LO:TUP:b	!	!	!	!	!
24AA/L	8g 8e/	.	8b/J	.	.
*Xped	*	*	*	*	*
24BB/	.	.	.	.	.
24AA/J	.	.	.	.	.
8G/J)	8eJ 8A/	.	8cc#\	-er	.
!!LO:LB:g=original
=8	=8	=8	=8	=8	=8
*ped	*	*	*	*	*
(8DD/L	4.f# 4.d/	.	4.dd\	we-	.
!LO:TUP:b	!	!	!	!	!
24AA/L	.	.	.	.	.
*Xped	*	*	*	*	*
24BB/	.	.	.	.	.
24AA/J	.	.	.	.	.
8A/J)	.	.	.	.	.
*ped	*	*	*	*	*
!LO:TX:a:t=P:problem:mixed beam	!	!	!	!	!
(8AAA#X/L	4.f# 4.e/	.	4cc#\	-hen,	.
*Xped	*	*	*	*	*
!LO:TUP:a	!	!	!	!	!
24F#\L	.	.	.	.	.
24G\	.	.	.	.	.
24F#\J	.	.	.	.	.
8c#J)	.	.	8cc#\	kein	.
=9	=9	=9	=9	=9	=9
*ped	*	*	*	*	*
!LO:TX:a:t=P:problem:mixed beam	!	!	!	!	!
(8BBB/L	2.b 2.f# 2.d/	.	4b\	Lau-	.
!LO:TUP:a	!	!	!	!	!
24F#\L	.	.	.	.	.
24G\	.	.	.	.	.
24F#\J	.	.	.	.	.
8BJ\)	.	.	8b\	-scher	.
!LO:TX:a:t=P:problem:mixed beam	!	!	!	!	!
(8BBB/L	.	.	8b\L	wird	.
!LO:TUP:a	!	!	!	!	!
24F#\L	.	.	8cc#\J	.	.
*Xped	*	*	*	*	*
24G\	.	.	.	.	.
24F#\J	.	.	.	.	.
8B\J)	.	.	8dd\	es	.
=10	=10	=10	=10	=10	=10
!LO:TX:a:t=P:problem:mixed beam	!	!	!	!	!
*ped	*	*	*	*	*
(8BBB/L	4.dd 4.g 4.d/	.	4.ee\	se-	.
*Xped	*	*	*	*	*
!LO:TUP:a	!	!	!	!	!
24G\L	.	.	.	.	.
24A\	.	.	.	.	.
24G\J	.	.	.	.	.
*ped	*	*	*	*	*
8d\J)	.	.	.	.	.
!LO:TX:a:t=P:problem:mixed beam	!	!	!	!	!
(8BBB-X/L	4.dd 4.g#X/	.	4ee#X\	-hen,	.
*Xped	*	*	*	*	*
!LO:TUP:a	!	!	!	!	!
24G#X\L	.	.	.	.	.
24A\	.	.	.	.	.
24G#\J	.	.	.	.	.
8d\J)	.	.	8ee#\	kein	.
=11	=11	=11	=11	=11	=11
*	*^	*	*	*	*
*ped	*	*	*	*	*	*
!LO:TX:a:t=P:problem:mixed beam	!	!	!	!	!	!
(8AAA/L	4dd/	8a\L	.	8ff#\L	Spä-	.
!LO:TUP:a	!	!	!	!	!	!
24A\L	.	8f#\	.	8dd\J	.	.
*Xped	*	*	*	*	*	*
24B\	.	.	.	.	.	.
24A\J	.	.	.	.	.	.
8d\J)	[8bn/	[8gn\J	.	8b\	-her	.
*ped	*	*	*	*	*	*
(8AAA/L	8b]L 8g/]	8ryy	.	4cc#\	blickt	.
!LO:TUP:b	!	!	!	!	!	!
24AA/L	8a 8f#/	4ryy	.	.	.	.
*Xped	*	*	*	*	*	*
24BB/	.	.	.	.	.	.
24AA/J	.	.	.	.	.	.
8A/J)	8gJ 8c#/	.	.	8a/	hin	.
*	*v	*v	*	*	*	*
!!LO:LB:g=original
=12	=12	=12	=12	=12	=12
*ped	*	*	*	*	*
(8DD/L	4.dd 4.f# 4.d/	.	4.a/	auf.	.
!LO:TUP:b	!	!	!	!	!
24AA/L	.	.	.	.	.
24BB/	.	.	.	.	.
24AA/J	.	.	.	.	.
8F#/J)	.	.	.	.	.
*Xped	*	*	*	*	*
(8DD/L	4r	.	4r	.	.
!LO:TUP:b	!	!	!	!	!
24AA/L	.	.	.	.	.
24BB/	.	.	.	.	.
24AA/J	.	.	.	.	.
!	!	!	!	!	!LO:DY:a
8F#/J)	8r	.	8dd\	Die	p
=13	=13	=13	=13	=13	=13
*	*^	*	*	*	*
*ped	*	*	*	*	*	*
!LO:TX:a:t=P:problem:mixed beam	!	!	!	!LO:TX:a:i:b:t=Ruhig.:mod=Ruhig	!	!
(8BBB-X/L	4.dd 4.b-X/	2.fn\	p	4dd\	Er-	.
!LO:TUP:a	!	!	!	!	!	!
24Fn\L	.	.	.	.	.	.
*Xped	*	*	*	*	*	*
24G\	.	.	.	.	.	.
24F\J	.	.	.	.	.	.
8dJ)	.	.	.	8dd\	-de	.
*ped	*	*	*	*	*	*
(8FFn\L	4.ccn 4.a/	.	.	4ccn\	liegt	.
!LO:TUP:a	!	!	!	!	!	!
24F\L	.	.	.	.	.	.
*Xped	*	*	*	*	*	*
24G\	.	.	.	.	.	.
24F\J	.	.	.	.	.	.
8cn\J)	.	.	.	8cc\	im	.
=14	=14	=14	=14	=14	=14	=14
*ped	*	*	*	*	*	*
(8GG\L	4.b-X 4.g/	2.d\	.	4.b-X\	Schlum-	.
!LO:TUP:a	!	!	!	!	!	!
24G\L	.	.	.	.	.	.
*Xped	*	*	*	*	*	*
24A\	.	.	.	.	.	.
24G\J	.	.	.	.	.	.
*ped	*	*	*	*	*	*
8d\J)	.	.	.	.	.	.
!LO:TX:a:t=P:problem:mixed beam	!	!	!	!	!	!
(8DD/L	4.a 4.f#X/	.	.	8a/	-mer,	.
*Xped	*	*	*	*	*	*
!LO:TUP:a	!	!	!	!	!	!
24A\L	.	.	.	8r	.	.
24Bn\	.	.	.	.	.	.
24A\J	.	.	.	.	.	.
8d\J)	.	.	.	8a/	kein	.
=15	=15	=15	=15	=15	=15	=15
*ped	*	*	*	*	*	*
!LO:TX:a:t=P:problem:mixed beam	!	!	!	!	!	!
(8GG/L	4bn/	4.g\	.	4bn\	Men-	.
*Xped	*	*	*	*	*	*
!LO:TUP:a	!	!	!	!	!	!
24B\L	.	.	.	.	.	.
24c#\	.	.	.	.	.	.
24B\J	.	.	.	.	.	.
8e\J)	8a#X/	.	.	8cc#\	-sche-	.
*ped	*	*	*	*	*	*
!LO:TX:a:t=P:problem:mixed beam	!	!	!	!	!	!
(8GG/L	4.b/	4b\	.	4dd\	-nau-	.
*Xped	*	*	*	*	*	*
!LO:TUP:a	!	!	!	!	!	!
24B\L	.	.	.	.	.	.
24c#\	.	.	.	.	.	.
24B\J	.	.	.	.	.	.
8e\J)	.	8cc#\	.	8ee\	-ge	.
*	*v	*v	*	*	*	*
!!LO:PB:g=original
=16	=16	=16	=16	=16	=16
*ped	*	*	*	*	*
(8FF#\L	2.cc# 2.a#X\	.	4.ff#\	wacht,	.
!LO:TUP:a	!	!	!	!	!
24F#\L	.	.	.	.	.
24G\	.	.	.	.	.
24F#\J	.	.	.	.	.
8f#\J)	.	.	.	.	.
8EE\L	.	.	4r	.	.
*Xped	*	*	*	*	*
!LO:TUP:a	!	!	!	!	!
(24F#\L	.	.	.	.	.
24G\	.	.	.	.	.
24F#\J	.	.	.	.	.
8f#\J)	.	.	8f#/	die	.
=17	=17	=17	=17	=17	=17
*	*^	*	*	*	*
*ped	*	*	*	*	*	*
(8DD\L	(4.b/	4.f#\	.	4f#/	Thä-	.
*Xped	*	*	*	*	*	*
!LO:TUP:a	!	!	!	!	!	!
24D\L	.	.	.	.	.	.
24E\	.	.	.	.	.	.
24D\J	.	.	.	.	.	.
*ped	*	*	*	*	*	*
8B\J)	.	.	.	8ff#\	-ler	.
(8EE\L	8b#X/L	4.g\	.	8ff#\L	al-	.
*Xped	*	*	*	*	*	*
!LO:TUP:a	!	!	!	!	!	!
24E\L	8cc#/	.	.	8ee\J	.	.
24F#\	.	.	.	.	.	.
24E\J	.	.	.	.	.	.
8c#\J)	8ee/J	.	.	8cc#\	-le	.
*	*v	*v	*	*	*	*
=18	=18	=18	=18	=18	=18
*ped	*	*	*	*	*
(8FF#\L	4.dd [4.f#/	.	4.dd\	schwei-	.
*Xped	*	*	*	*	*
!LO:TUP:a	!	!	!	!	!
24F#\L	.	.	.	.	.
24G\	.	.	.	.	.
24F#\J	.	.	.	.	.
*ped	*	*	*	*	*
8f#\J)	.	.	.	.	.
*Xped	*	*	*	*	*
(8FF#\L	8cc# 8f#/])	.	8a#X/	-gen,	.
!LO:TUP:a	!	!	!	!	!
24F#\L	8r	.	8r	.	.
24G\	.	.	.	.	.
24F#\J	.	.	.	.	.
8f#\J)	8r	.	8f#/	der	.
=19	=19	=19	=19	=19	=19
*	*^	*	*	*	*
*ped	*	*	*	*	*	*
(8DD\L	(4.b/	4.f#\	.	4f#/	Mond	.
*Xped	*	*	*	*	*	*
!LO:TUP:a	!	!	!	!	!	!
24D\L	.	.	.	.	.	.
24E\	.	.	.	.	.	.
24D\J	.	.	.	.	.	.
*ped	*	*	*	*	*	*
8B\J)	.	.	.	8ff#\	nur	.
*Xped	*	*	*	*	*	*
(8EE\L	8b#X/L	4.g\	.	8ff#\L	tanzt	.
!LO:TUP:a	!	!	!	!	!	!
24E\L	8cc#/	.	.	8ee\J	.	.
24F#\	.	.	.	.	.	.
24E\J	.	.	.	.	.	.
8c#\J)	8dd/J	.	.	8cc#\	den	.
*	*v	*v	*	*	*	*
!!LO:LB:g=original
=20	=20	=20	=20	=20	=20
*ped	*	*	*	*	*
(8FF#\L	4.dd 4.f#/	.	4.b\	Rei-	.
*Xped	*	*	*	*	*
!LO:TUP:a	!	!	!	!	!
24F#\L	.	.	.	.	.
24G\	.	.	.	.	.
24F#\J	.	.	.	.	.
*ped	*	*	*	*	*
8f#\J)	.	.	.	.	.
*Xped	*	*	*	*	*
(8FF#\L	8cc# 8e/))	.	8a#X/	-gen	.
!LO:TUP:a	!	!	!	!	!
24F#\L	8r	.	8r	.	.
24G\	.	.	.	.	.
24F#\J	.	.	.	.	.
8f#\J)	8r	.	8r	.	.
=21	=21	=21	=21	=21	=21
*ped	*	*	*	*	*
(8BBB\L	4.an 4.d#X/	.	4b\	und	.
*Xped	*	*	*	*	*
!LO:TUP:a	!	!	!	!	!
24F#\L	.	.	.	.	.
24G\	.	.	.	.	.
24F#\J	.	.	.	.	.
8B\J)	.	.	8b\	die	.
*ped	*	*	*	*	*
(8EE\L	4.g 4.e/	.	4b\	gold'-	.
*Xped	*	*	*	*	*
!LO:TUP:a	!	!	!	!	!
24E\L	.	.	.	.	.
24F#\	.	.	.	.	.
24E\J	.	.	.	.	.
8B\J)	.	.	8cc#\	-nen	.
=22	=22	=22	=22	=22	=22
*	*^	*	*	*	*
*ped	*	*	*	*	*	*
(8FF#\L	4.f# 4.d/	4.ryy	.	4.dd\	Ster-	.
*Xped	*	*	*	*	*	*
!LO:TUP:a	!	!	!	!	!	!
24F#\L	.	.	.	.	.	.
24G\	.	.	.	.	.	.
24F#\J	.	.	.	.	.	.
8B\J)	.	.	.	.	.	.
*ped	*	*	*	*	*	*
(8GG\L	4.e#X/	4d\	.	4b\	-ne	.
*Xped	*	*	*	*	*	*
!LO:TUP:a	!	!	!	!	!	!
24Gn\L	.	.	.	.	.	.
24A\	.	.	.	.	.	.
24G\J	.	.	.	.	.	.
8B\J)	.	[8c#\	.	8e#X/	der	.
*	*v	*v	*	*	*	*
=23	=23	=23	=23	=23	=23
(8FF#\L	4f# 4c#] 4A#X/	.	[2.f#/	Nacht	.
8F#\	.	.	.	.	.
8g\	24eeLL 24b/	p	.	.	.
.	24ff#/	.	.	.	.
.	24ee/JJ	.	.	.	.
8e\	4cc# 4g/	.	.	.	.
8F#\	.	.	.	.	.
8f#\J	24ddLL 24an/	.	.	.	.
.	24ee/	.	.	.	.
.	24dd/JJ	.	.	.	.
!!LO:LB:g=original
=24	=24	=24	=24	=24	=24
8d\L	4b 4f#/	.	4.f#/_	.	.
8F#\	.	.	.	.	.
8e\J	24cc#LL 24g/	.	.	.	.
.	24dd/	.	.	.	.
.	24cc#/JJ	.	.	.	.
16c#\LL	(>8a#XL 8e/	.	8f#/]	.	.
16F#\J	.	.	.	.	.
8d\	8b 8f#/	.	8r	.	.
16c#\L	16anL 16e/	.	8r	.	.
16B\JJ	16gJJ 16d/	.	.	.	.
=25	=25	=25	=25	=25	=25
*^	*	*	*	*	*
8A#X\L)	4.FF#/	4f# 4c#/)	.	2.r	.	.
(<<8FF#\	.	.	.	.	.	.
8G\J	.	(>>24eLL 24B/	.	.	.	.
.	.	24f#/	.	.	.	.
.	.	24e/JJ	.	.	.	.
8E\L	4.FF#/	4c# 4G/	.	.	.	.
8FF#\	.	.	.	.	.	.
8F#\J	.	24dLL 24A/	.	.	.	.
.	.	24e/	.	.	.	.
.	.	24d/JJ	.	.	.	.
=26	=26	=26	=26	=26	=26	=26
8D\L	4.FF#/	4B< 4F#</	.	2.r	.	.
8FF#\	.	.	.	.	.	.
8GJ 8E\	.	24c#</LL	.	.	.	.
.	.	24d</	.	.	.	.
.	.	24c#</JJ	.	.	.	.
16ELL 16C#\	8ryy	8A#X</L	.	.	.	.
16FF#\J	.	.	.	.	.	.
8D\	4ryy	8B< 8F#</	.	.	.	.
16C#\L	.	16An<L 16E</	.	.	.	.
16BB\JJ	.	16G<JJ 16D</	.	.	.	.
*v	*v	*	*	*	*	*
=27	=27	=27	=27	=27	=27
8C# 8AA#X 8FF#\))	8F#</)	.	2.r	.	.
!	!	!LO:S:b	!	!	!
16r	16r	.	.	.	.
(16f#\LL	(16ff#\LL	f	.	.	.
16e#X\	16ee#X\	.	.	.	.
16f#\JJ	16ff#\JJ	.	.	.	.
4F#\)	4f#/)	.	.	.	.
!	!LO:MO:mod=*null:null	!	!	!	!
*	*Xtuplet	*	*	*	*
(24F#\LL	(>>24f#/LL	.	.	.	.
24E#X\	24e#X/	.	.	.	.
24F#\JJ	24f#/JJ	.	.	.	.
=28	=28	=28	=28	=28	=28
*	*tuplet	*	*	*	*
2.FF#\)	2.F#</)	.	4r	.	.
!	!	!	!LO:TX:a:b:i:t=Leidenschaftlich	!	!
.	.	.	8r	.	.
.	.	.	8r	.	.
!	!	!	!	!	!LO:DY:a
.	.	.	16r	.	f
.	.	.	16ff#\	Es	.
.	.	.	16ee#X\	schwillt	.
.	.	.	16ff#\	mein	.
!!LO:LB:g=original
=29	=29	=29	=29	=29	=29
!	!	!	!	!	!LO:DY:a
*ped	*	*	*	*	*
!	!	!	!	!	!LO:MO:null:mod=.
(8DD\L	(>4.cc# 4.b-X 4.g/	f	(8.ff#\L	Herz	f
*Xped	*	*	*	*	*
!LO:TUP:a	!	!	!	!	!
24AA\L	.	.	.	.	.
24BB\	.	.	.	.	.
.	.	.	16een\Jk)	.	.
24AA\J	.	.	.	.	.
8A\J)	.	.	(16dd\LL	voll	.
.	.	.	16cc#\JJ)	.	.
*ped	*	*	*	*	*
(8DD\L	4a 4f#/	.	8.ee\L	Seh-	.
*Xped	*	*	*	*	*
!LO:TUP:a	!	!	!	!	!
24AA\L	.	.	.	.	.
24BB\	.	.	.	.	.
!	!	!	!	!	!LO:DY:a
.	.	.	16dd\Jk	.	>
24AA\J	.	.	.	.	.
8A\J)	8g#X 8fn/	.	16cc#\	-nen,	.
.	.	.	16b\	mich	]]
=30	=30	=30	=30	=30	=30
*ped	*	*	*	*	*
(8DD/L	4gn 4e/	.	8.b-X\	zieht's	.
*Xped	*	*	*	*	*
!LO:TUP:b	!	!	!	!	!
24AA/L	.	.	.	.	.
24BB/	.	.	.	.	.
.	.	.	16e/	von	.
24AA/J	.	.	.	.	.
8G/J)	8e 8B-X/	.	16f#/	Schif-	.
.	.	.	8qa/	.	.
.	.	.	16g/	-fes	.
*ped	*	*	*	*	*
(8DD/L	8f# 8A/)	.	4f#/	Rand,	.
*Xped	*	*	*	*	*
!LO:TUP:b	!	!	!	!	!
24AA/L	16r	.	.	.	.
24BB/	.	.	.	.	.
!	!	!LO:MO:null:mod=.	!	!	!
.	(16ff#\LL	f	.	.	.
24AA/J	.	.	.	.	.
8A/J)	16ee#X\	.	8r	.	.
.	16ff#\JJ)	.	.	.	.
=31	=31	=31	=31	=31	=31
*	*^	*	*	*	*
*ped	*	*	*	*	*	*
(8DD/L	(8.ff#^/L	4.cc# 4.b-X 4.g\	sfz	2.r	.	.
*Xped	*	*	*	*	*	*
!LO:TUP:b	!	!	!	!	!	!
24AA/L	.	.	.	.	.	.
24BB/	.	.	.	.	.	.
.	16een/L	.	.	.	.	.
24AA/J	.	.	.	.	.	.
8A/J)	16dd/	.	.	.	.	.
.	16cc#/JJ)	.	.	.	.	.
*ped	*	*	*	*	*	*
(8DD/L	(8.ee/L	4a 4f#\	.	.	.	.
*Xped	*	*	*	*	*	*
!LO:TUP:b	!	!	!	!	!	!
24AA/L	.	.	.	.	.	.
24BB/	.	.	.	.	.	.
.	16dd/L	.	.	.	.	.
24AA/J	.	.	.	.	.	.
8A/J)	16cc#/	8g#X 8fn 8d\	.	.	.	.
.	16bn/JJ)	.	.	.	.	.
!!LO:PB:g=original
=32	=32	=32	=32	=32	=32	=32
*ped	*	*	*	*	*	*
(8DD/L	(8b-X^/L	4e 4d\	.	4r	.	.
*Xped	*	*	*	*	*	*
!LO:TUP:b	!	!	!	!	!	!
24AA/L	24b-/L	.	.	.	.	.
24BB/	24e/	.	.	.	.	.
24AA/J	24f#X/	.	.	.	.	.
8A/J)	24a/	8c#\	.	8r	.	.
.	24g/	.	.	.	.	.
.	24f#/JJ	.	.	.	.	.
*ped	*	*	*	*	*	*
(8DD/L	4.f# 4.d/)	4.ryy	.	4r	.	.
*Xped	*	*	*	*	*	*
!LO:TUP:b	!	!	!	!	!	!
24AA/L	.	.	.	.	.	.
24BB/	.	.	.	.	.	.
24AA/J	.	.	.	.	.	.
8A/J)	.	.	.	8a/	möcht'	.
*	*v	*v	*	*	*	*
=33	=33	=33	=33	=33	=33
!	!	!	!	!	!LO:DY:a
*ped	*	*	*	*	*
(8DD/L	(>4dd 4d/	f	4dd^\	stür-	f
*Xped	*	*	*	*	*
!LO:TUP:b	!	!	!	!	!
24BB-X/L	.	.	.	.	.
24Cn/	.	.	.	.	.
24BB-/J	.	.	.	.	.
8Fn/J)	8b-X 8d/	.	24d/	-zen	.
.	.	.	24fn/	in	.
.	.	.	24g/	die	.
*ped	*	*	*	*	*
(8DD/L	4.a 4.f#X/)	.	8a/	Schäu-	.
*Xped	*	*	*	*	*
!LO:TUP:b	!	!	!	!	!
24AA/L	.	.	8d/	-me,	.
24BBn/	.	.	.	.	.
24AA/J	.	.	.	.	.
8F#X/J)	.	.	8d/	möcht'	.
=34	=34	=34	=34	=34	=34
*ped	*	*	*	*	*
(8DD/L	(>4dd 4d/	.	8.dd\	flie-	.
*Xped	*	*	*	*	*
!LO:TUP:b	!	!	!	!	!
24BB-X/L	.	.	.	.	.
24Cn/	.	.	.	.	.
.	.	.	16d/	-gen	.
24BB-/J	.	.	.	.	.
8Fn/J)	8b-X 8d/	.	16fn/	in	.
.	.	.	16g/	die	.
*ped	*	*	*	*	*
(8DD/L	4.a 4.f#X/)	.	4a/	Räu-	.
*Xped	*	*	*	*	*
!LO:TUP:b	!	!	!	!	!
24AA/L	.	.	.	.	.
24BBn/	.	.	.	.	.
24AA/J	.	.	.	.	.
8F#X/J)	.	.	8a/	-me,	.
!!LO:LB:g=original
=35	=35	=35	=35	=35	=35
*	*^	*	*	*	*
*ped	*	*	*	*	*	*
(8GGG\L	8bnL 8g/	2.d\	.	8b\	die	.
!	!LO:TX:a:b:t=der Stimme folgend	!	!	!LO:TX:a:b:t=etwas langsamer	!	!
*Xped	*	*	*	*	*	*
!LO:TUP:a	!	!	!	!	!	!
24D\L	8a#X 8f#/	.	.	8a#X/	ü-	.
24E\	.	.	.	.	.	.
24D\J	.	.	.	.	.	.
8B\J)	8bJ 8g/	.	.	8b\	-ber	.
*ped	*	*	*	*	*	*
(8EE\L	8ddL 8b/	.	.	8dd\	mir	.
*Xped	*	*	*	*	*	*
!LO:TUP:a	!	!	!	!	!	!
24E\L	8cc# 8an/	.	.	8cc#\	aus-	.
24F#\	.	.	.	.	.	.
24E\J	.	.	.	.	.	.
8B\J)	8bJ 8g/	.	.	8b\	-ge-	.
*	*v	*v	*	*	*	*
=36	=36	=36	=36	=36	=36
*ped	*	*	*	*	*
!LO:TX:a:t=P:problem:mixed beam	!	!	!	!	!
8AAA/L	4a 4e 4c#/	.	[2.a/	-spannt	.
8A\	.	.	.	.	.
8gJ	(24eeLL 24b/	>	.	.	.
*Xped	*	*	*	*	*
.	24ff#/	.	.	.	.
.	24ee/JJ	.	.	.	.
8e\L	4cc# 4g/)	.	.	.	.
8A\	.	.	.	.	.
8f#\J	(24ddLL 24a/	.	.	.	.
.	24ee/	.	.	.	.
.	24dd/JJ	.	.	.	.
=37	=37	=37	=37	=37	=37
*	*^	*	*	*	*
8d\L	4b 4f#/)	4.ryy	.	4.a/]	.	.
8A\	.	.	.	.	.	.
!	!LO:TX:a:i:t=a tempo	!	!	!	!	!
8e\J	24cc#LL 24g/	.	.	.	.	.
.	24dd/	.	.	.	.	.
.	24cc#/JJ	.	.	.	.	.
8c#L [8A\	8a/L	8e\L	.	8r	.	.
8d 8A\]	16ccn/L	8fn\	.	4r	.	.
.	16b-X/	.	.	.	.	.
8B-X\J	16f#X/	8d\J	.	.	.	.
.	16g/JJ	.	]	.	.	.
*	*v	*v	*	*	*	*
=38	=38	=38	=38	=38	=38
!	!	!LO:TX:t=dimi-nuen-do:dur=4q:ext=ud:problem:text with extention lines	!	!	!
8A\L	4a 4c#X/	.	2.r	.	.
8AA\	.	.	.	.	.
!	!	!LO:DY:a	!	!	!
!	!LO:TUP:b	!	!	!	!
8G\J	(24eLL 24Bn/	>	.	.	.
.	24f#X/	.	.	.	.
.	24e/JJ	.	.	.	.
8E\L	4c# 4G/)	.	.	.	.
8AA\	.	.	.	.	.
!	!LO:TUP:a	!	!	!	!
8F#\J	(24dLL 24A/	.	.	.	.
.	24e/	.	.	.	.
.	24d/JJ	]]	.	.	.
!!LO:LB:g=original
=39	=39	=39	=39	=39	=39
*^	*	*	*	*	*
8D\L	4.ryy	4B) 4F#/	.	2.r	.	.
8AA\	.	.	.	.	.	.
!	!	!LO:MO:mod=*null:null	!	!	!	!
*	*	*Xtuplet	*	*	*	*
8E\J	.	24c#LL N(<24G/	.	.	.	.
.	.	24d/	.	.	.	.
.	.	24c#/JJ	.	.	.	.
8E/LN)	8C#L [8AA\	8AL/	.	.	.	.
8Fn/	8D 8AA\]	16cn/L	.	.	.	.
.	.	16B-X/	.	.	.	.
8D/J	8BB-X\J	16Fn/	.	.	.	.
.	.	16G/JJ	.	.	.	.
*v	*v	*	*	*	*	*
*	*	*tuplet	*	*	*
=40	=40	=40	=40	=40	=40
8AA\L	4A 4C#X/	>	2.r	.	.
8AAA\J	.	.	.	.	.
[8A 8D#X [8AA\	24f#XLL 24B#X/	.	.	.	.
.	24g/	.	.	.	.
.	24f#/JJ	.	.	.	.
!	!LO:TX:a:i:t=ten.	!	!	!	!
4A] 4E 4AA\]	4a 4e 4c#X/	.	.	.	.
[8A 8D# [8AA\	24f#LL 24B#/	.	.	.	.
.	24g/	.	.	.	.
.	24f#/JJ	]]	.	.	.
=41	=41	=41	=41	=41	=41
*^	*	*	*	*	*
*	*	*^	*	*	*	*
!	!	!LO:TX:a:i:t=ten.	!	!	!	!	!
4.A] 4.E 4.AA\]	4.ryy	4.a 4.e 4.c#/	4.ryy	.	2.r	.	.
!	!	!LO:TUP:b	!	!	!	!	!
8D#X/L	4AA\	(>>(<<40f#/LLL	8B#\L	.	.	.	.
.	.	40g/	.	.	.	.	.
.	.	40f#/	.	.	.	.	.
.	.	40e#X/	.	.	.	.	.
.	.	40f#/J)	.	.	.	.	.
8E/	.	16a/	16A#\	.	.	.	.
.	.	16g/	16Bn\	.	.	.	.
8A/J	8AAn\	16f#/	16B#\	.	.	.	.
.	.	16en/JJ)	16c\J	.	.	.	.
*	*	*v	*v	*	*	*	*
*v	*v	*	*	*	*	*
=42	=42	=42	=42	=42	=42
*ped	*	*	*	*	*
!	!	!	!	!	!LO:MO:null:mod=!LO&colon;DY&colon;ed=brack
!	!	!	!	!	!
!	!	!	!	!	!LO:MO:null:mod=p
(<<8DDn\L	(>>8dL 8F#</	p	8a/	Du	.
*Xped	*	*	*	*	*
24AA\L	8A</	.	8a/	al-	.
24BB\	.	.	.	.	.
24AA\J	.	.	.	.	.
8F#\J)	8A</J	.	8a/	-ler	.
*ped	*	*	*	*	*
(<8DD\L	8aL 8f#/	.	8a/L	Ro-	.
*Xped	*	*	*	*	*
24AA\L	8g 8e/	.	8b/J	.	.
24BB\	.	.	.	.	.
24AA\J	.	.	.	.	.
8G\J)	8eJ 8A/)	.	8cc#\	-sen	.
=43	=43	=43	=43	=43	=43
*ped	*	*	*	*	*
(8DD/L	4f# 4A/	.	4.dd\	Ro-	.
*Xped	*	*	*	*	*
24AA/L	.	.	.	.	.
24BB/	.	.	.	.	.
24AA/J	.	.	.	.	.
!	!LO:TX:a:i:t=marcato	!	!	!	!
8F#/J)	8a 8f# 8A/	.	.	.	.
*ped	*	*	*	*	*
(8DD/L	8aL 8g 8A^/	.	4.a/	-se,	.
*Xped	*	*	*	*	*
24AA/L	8a 8g 8B^/	.	.	.	.
24BB/	.	.	.	.	.
24AA/J	.	.	.	.	.
8E/J)	8aJ 8g 8c#^/	.	.	.	.
!!LO:LB:g=original
=44	=44	=44	=44	=44	=44
*^	*	*	*	*	*
4AA/	2.DD\	8f# 8d/	.	8a/	thu'	.
*	*	*tuplet	*	*	*	*
!	!	!LO:TUP:b	!	!	!	!
.	.	(24a/LL	.	8a/	doch	.
.	.	24b/	.	.	.	.
.	.	24a/J	.	.	.	.
!LO:TX:a:i:t=marcato	!	!	!	!	!	!
(<8AA/	.	8ff#J 8f#/)	.	8a/	dein	.
!	!	!LO:TUP:b	!	!	!	!
8AA/L	.	(24a/LL	.	4a/	Fen-	.
.	.	24b/	.	.	.	.
.	.	24a/J	.	.	.	.
8BB/	.	8eeJ 8g#X/)	.	.	.	.
!	!	!LO:TUP:b	!	!	!	!
8C#/J)	.	(24gn/LL	.	8a/	-ster	.
.	.	24a/	.	.	.	.
.	.	24g/JJ	.	.	.	.
=45	=45	=45	=45	=45	=45	=45
!	!	!	!	!	!	!LO:DY:a
8DD\	2.D\	8ff# 8f#/)	.	[2.dd\	auf	>
!	!	!LO:TUP:b	!	!	!	!
(8G\L	.	(24e/LL	.	.	.	.
.	.	24f#/	.	.	.	.
.	.	24e/J	.	.	.	.
8F#\	.	8aJ 8d/)	.	.	.	.
!	!	!LO:TUP:b	!	!	!	!
8d\	.	(24g/LL	>	.	.	.
.	.	24a/	.	.	.	.
.	.	24g/J	.	.	.	.
8A\	.	8ddJ 8f#/)	>	.	.	.
!	!	!LO:TUP:b	!	!	!	!
8G\J)	.	(24e/LL	.	.	.	.
.	.	24f#/	.	.	.	.
.	.	24e/JJ	.	.	.	.
=46	=46	=46	=46	=46	=46	=46
8F#/L	[2.D\	8aL 8d/)	.	2.dd\_	.	]]
!	!	!LO:TUP:b	!	!	!	!
8B/	.	(24g/L	.	.	.	.
.	.	24a/	.	.	.	.
.	.	24g/J	.	.	.	.
8A/J	.	8ddJ 8f#/)	.	.	.	.
!	!	!LO:TUP:b	!	!	!	!
8G/L	.	(24e/LL	.	.	.	.
.	.	24f#/	.	.	.	.
.	.	24e/J	.	.	.	.
8F#/	.	8aJ 8d/)	.	.	.	.
!	!	!LO:TUP:b	!	!	!	!
8B/J	.	(24g/LL	]	.	.	.
.	.	24a/	.	.	.	.
.	.	24g/JJ	.	.	.	.
=47	=47	=47	=47	=47	=47	=47
*	*	*^	*	*	*	*
4.cn 4.D;\]	4.ryy	4dd 4f# 4d;/)	4.ryy	.	4dd;\]	.	.
!	!	!LO:TUP:b	!	!	!	!	!
.	.	24ee/LL	.	.	2r	.	.
.	.	24ff#/	.	.	.	.	.
.	.	24ee/JJ	.	.	.	.	.
4B/	4.GG\	4dd/	4.g\	.	.	.	.
!	!	!LO:TUP:b	!	!	!	!	!
8B-X/	.	24gg/LL	.	.	.	.	.
.	.	24aa/	.	.	.	.	.
.	.	24gg/JJ	.	.	.	.	.
*	*	*v	*v	*	*	*	*
=48	=48	=48	=48	=48	=48	=48
*ped	*	*	*	*	*	*
4.A/	4.D 4.DD\	4.ddd 4.ff# 4.a\	.	2.r	.	.
4.A 4.D/	8ryy	4.ff# 4.a\	.	.	.	.
.	4ryy	.	.	.	.	.
*v	*v	*	*	*	*	*
=49	=49	=49	=49	=49	=49
2.d 2.A 2.D;\	2.dd 2.f#;/	.	2.r	.	.
*Xped	*	*	*	*	*
==	==	==	==	==	==
*-	*-	*-	*-	*-	*-
!!!RDF**kern: > = above
!!!RDF**kern: < = below
!!!RDF**kern: N = linked
!!!system-decoration: s1{(s2,s3)}
!!!ENC: Berenika Jozajtis
!!!END: 2022-07-24
!!!ENC: Urszula Świątek
!!!END: 2022-08-17
!!!ENC-modern: Andrzej Borzym
!!!END-modern: 2022-08-28!!!YEC: Copyright 2022 Narodowy Instytut Fryderyka Chopina (https://polishscores.org)
!!!YEM: Licence CC BY 4.0 (https://creativecommons.org/licenses/by/4.0)
